!!!COM: Bach, Johann Sebastian
!!!OTL@@DE: 50. In allen meinen Taten
!!!OTL@EN: In all my deeds
!!!SCA: 244.37
**harm	**root	**kern	**kern	**kern	**kern
*staff2	*	*staff2	*staff2	*staff1	*staff1
*Iorgan	*Iorgan	*Iorgan	*Iorgan	*Iorgan	*Iorgan
!	!	!bass	!tenor	!alto	!sprno
*	*	*clefF4	*clefF4	*clefG2	*clefG2
*k[f#c#g#d#a#]	*k[f#c#g#d#a#]	*k[f#c#g#d#a#]	*k[f#c#g#d#a#]	*k[f#c#g#d#a#]	*k[f#c#g#d#a#]
*met(c)	*met(c)	*met(c)	*met(c)	*met(c)	*met(c)
*B:	*B:	*B:	*B:	*B:	*B:
*M4/4	*M4/4	*M4/4	*M4/4	*M4/4	*M4/4
*MM60	*MM60	*MM60	*MM60	*MM60	*MM60
I	4FF	4B	4f#	4b	4dd#
=1	=1	=1	=1	=1	=1
IV	4BB-	4e	4g#	4g#	4b
viiob	4EE	8d#L	8f#L	4a#	4cc#
.	.	8c#J	8eJ	.	.
I	2FF	4.B	4.d#	8bL	(8dd#L
.	.	.	.	8cc#J	8eeJ
.	.	.	.	4dd#	4ff#)
.	.	8A#	8c#	.	.
=2	=2	=2	=2	=2	=2
IV7b	4BB-	4G#	4B	4dd#	2ee
V7b	4CC	4A#	4f#	4cc#	.
I;	4FF;	4B;	4f#;	4b;	4dd#;
I	4FF	8BL	4f#	4b	8dd#L
.	.	8c#J	.	.	8eeJ
=3	=3	=3	=3	=3	=3
Ib	4FF	4d#	4f#	8bL	4ff#
.	.	.	.	8a#J	.
Ib	4FF	8D#L	4f#	8bL	4ff#
.	.	8EJ	.	8cc#J	.
V	4CC	4F#	4f#	8a#L	4cc#
.	.	.	.	8g#J	.
iiib	4AA	4D#	8f#L	4f#	(8dd#L
.	.	.	8e#J	.	8cc#J
=4	=4	=4	=4	=4	=4
viio/V	2BB	2G#	8d#L	4f#	2b)
.	.	.	8c#J	.	.
.	.	.	4B	4e#	.
V;	4CC;	4F#;	4c#;	4f#;	4a#;
V7	4CC	4F#	4ey	4a#	4f#
=5	=5	=5	=5	=5	=5
vi	4DD	4G#	4d#	4g#	4b
Vb	4CC	4A#	4c#	4f#	4cc#
I	4FF	4B	4B	4f#	8dd#L
.	.	.	.	.	16eeL
.	.	.	.	.	16ff#JJ
IV	4BB-	4E	4B	4g#	8eeL
.	.	.	.	.	8dd#J
=6	=6	=6	=6	=6	=6
V;	2.CC;	2.F#;	2.f#;	2.a#;	2.cc#;
Vb/VI	4AA	4F##	4d#	4a#	4dd#
=7	=7	=7	=7	=7	=7
!!linebreak: 2
vi	4DD	4G#	4d#	4g#	4b
Vb	4CC	4A#	4c#	4f#	4cc#
I	4FF	4B	8BL	4f#	8dd#L
.	.	.	8c#J	.	8eeJ
V7b/II	4DD	4B#	4d#	4g#	4ff#
=8	=8	=8	=8	=8	=8
ii	2GG	4c#	8c#L	4g#	2ee
.	.	.	8d#J	.	.
.	.	4C#	8eL	4cc#	.
.	.	.	8f#J	.	.
V/II;	4DD;	4G#;	4g#;	4b#;	4dd#;
vi	4DD	4g#	4g#	4b	8dd#L
.	.	.	.	.	8eeJ
=9	=9	=9	=9	=9	=9
Ib	4FF	8d#L	8f#L	4b	4ff#
.	.	8c#	8e	.	.
Ib	4FF	8d#	8f#	4b	4ff#
.	.	8eJ	8g#J	.	.
V	4CC	4f#	4a#	8a#L	4cc#
.	.	.	.	8g#J	.
I	4FF	8BL	4b	4f#	(8dd#L
.	.	8A#J	.	.	8cc#J
=10	=10	=10	=10	=10	=10
vi7	4DD	8G#L	8BL	4f#	2b)
.	.	8F#J	8d#J	.	.
V7c/V	4GG	4G#	8c#L	4e#	.
.	.	.	8BJ	.	.
V;	4CC;	4F#;	4c#;	4f#;	4a#;
V7c	4CC	4E	4A#	4c#	4f#
=11	=11	=11	=11	=11	=11
Ib	4FF	4D#	8BL	4f#	4b
.	.	.	8f#J	.	.
ii	4GG	4C#	8g#L	4e	4cc#
.	.	.	8a#J	.	.
I	4FF	4BB	8bL	8d#L	4dd#
.	.	.	8f#J	8f#J	.
IV7b	4BB-	4G#	8eL	4b	8cc#L
.	.	.	8BJ	.	16dd#L
.	.	.	.	.	16eeJJ
=12	=12	=12	=12	=12	=12
Ic	4FF	8F#L	4.f#	4b	4dd#
.	.	8EJ	.	.	.
V7	4CC	4F#	.	4a#	4cc#
.	.	.	8e	.	.
I;	4FF;	4BB;	4d#;	4f#;	4b;
==	==	==	==	==	==
*-	*-	*-	*-	*-	*-
!!!ENC: Craig Stuart Sapp
!!!END: 2004/12/06/
!!!ONB: Harmony and Root analysis done manually by Craig Sapp
!!chor2scor: -l 2 -s 0.6 -o %b.pmx
